brudiboard-v1/case/foot/foot-2.svg

<?xml version="1.0" encoding="UTF-8" standalone="no"?>
<!-- Created with Inkscape (http://www.inkscape.org/) -->

<svg
   width="375mm"
   height="320mm"
   viewBox="0 0 375 320"
   version="1.1"
   id="svg1"
   inkscape:version="1.3.2 (091e20e, 2023-11-25, custom)"
   sodipodi:docname="foot-2.svg"
   xmlns:inkscape="http://www.inkscape.org/namespaces/inkscape"
   xmlns:sodipodi="http://sodipodi.sourceforge.net/DTD/sodipodi-0.dtd"
   xmlns="http://www.w3.org/2000/svg"
   xmlns:svg="http://www.w3.org/2000/svg">
  <sodipodi:namedview
     id="namedview1"
     pagecolor="#505050"
     bordercolor="#eeeeee"
     borderopacity="1"
     inkscape:showpageshadow="0"
     inkscape:pageopacity="0"
     inkscape:pagecheckerboard="0"
     inkscape:deskcolor="#505050"
     inkscape:document-units="mm"
     showgrid="true"
     inkscape:zoom="0.95999871"
     inkscape:cx="658.85505"
     inkscape:cy="178.64607"
     inkscape:window-width="1920"
     inkscape:window-height="1017"
     inkscape:window-x="-8"
     inkscape:window-y="-8"
     inkscape:window-maximized="1"
     inkscape:current-layer="g27">
    <inkscape:grid
       id="grid1"
       units="mm"
       originx="0"
       originy="0"
       spacingx="0.99999999"
       spacingy="1"
       empcolor="#0099e5"
       empopacity="0.30196078"
       color="#0099e5"
       opacity="0.14901961"
       empspacing="5"
       dotted="false"
       gridanglex="30"
       gridanglez="30"
       visible="true" />
  </sodipodi:namedview>
  <defs
     id="defs1" />
  <g
     inkscape:groupmode="layer"
     id="g27"
     inkscape:label="Case-FRL"
     style="display:inline">
    <path
       id="rect12-3-9"
       style="display:inline;fill:none;fill-opacity:0.15;stroke:#00ffff;stroke-width:0.0999999;stroke-opacity:1"
       inkscape:label="foot-1"
       d="M 13.35009 29.662789 C 11.965096 29.662789 10.849984 30.777901 10.849984 32.162895 L 10.849984 52.662935 C 10.849984 54.047929 11.965096 55.163041 13.35009 55.163041 L 365.34979 55.163041 C 366.73479 55.163041 367.8499 54.047929 367.8499 52.662935 L 367.8499 32.162895 C 367.8499 30.777901 366.73479 29.662789 365.34979 29.662789 L 13.35009 29.662789 z M 15.000118 32.512744 A 1.8000001 1.8000002 0 0 1 16.800008 34.313151 A 1.8000001 1.8000002 0 0 1 15.000118 36.113041 A 1.8000001 1.8000002 0 0 1 13.200228 34.313151 A 1.8000001 1.8000002 0 0 1 15.000118 32.512744 z M 113.50005 32.512744 A 1.8000001 1.8000002 0 0 1 115.29994 34.313151 A 1.8000001 1.8000002 0 0 1 113.50005 36.113041 A 1.8000001 1.8000002 0 0 1 111.70016 34.313151 A 1.8000001 1.8000002 0 0 1 113.50005 32.512744 z M 265.19983 32.512744 A 1.8000001 1.8000002 0 0 1 267.00024 34.313151 A 1.8000001 1.8000002 0 0 1 265.19983 36.113041 A 1.8000001 1.8000002 0 0 1 263.39994 34.313151 A 1.8000001 1.8000002 0 0 1 265.19983 32.512744 z M 363.69976 32.512744 A 1.8000001 1.8000002 0 0 1 365.50017 34.313151 A 1.8000001 1.8000002 0 0 1 363.69976 36.113041 A 1.8000001 1.8000002 0 0 1 361.89987 34.313151 A 1.8000001 1.8000002 0 0 1 363.69976 32.512744 z M 181.99974 37.700024 A 1.3 1.3 0 0 1 183.29992 39.000203 A 1.3 1.3 0 0 1 181.99974 40.299866 A 1.3 1.3 0 0 1 180.70008 39.000203 A 1.3 1.3 0 0 1 181.99974 37.700024 z M 194.00004 37.700024 A 1.3 1.3000001 0 0 1 195.30022 39.000203 A 1.3 1.3000001 0 0 1 194.00004 40.299866 A 1.3 1.3000001 0 0 1 192.69987 39.000203 A 1.3 1.3000001 0 0 1 194.00004 37.700024 z " />
  </g>
</svg>

<?xml version="1.0" encoding="UTF-8" standalone="no"?>
<!-- Created with Inkscape (http://www.inkscape.org/) -->

<svg
   width="375mm"
   height="320mm"
   viewBox="0 0 375 320"
   version="1.1"
   id="svg1"
   inkscape:version="1.3.2 (091e20e, 2023-11-25, custom)"
   sodipodi:docname="foot-2.svg"
   xmlns:inkscape="http://www.inkscape.org/namespaces/inkscape"
   xmlns:sodipodi="http://sodipodi.sourceforge.net/DTD/sodipodi-0.dtd"
   xmlns="http://www.w3.org/2000/svg"
   xmlns:svg="http://www.w3.org/2000/svg">
  <sodipodi:namedview
     id="namedview1"
     pagecolor="#505050"
     bordercolor="#eeeeee"
     borderopacity="1"
     inkscape:showpageshadow="0"
     inkscape:pageopacity="0"
     inkscape:pagecheckerboard="0"
     inkscape:deskcolor="#505050"
     inkscape:document-units="mm"
     showgrid="true"
     inkscape:zoom="0.95999871"
     inkscape:cx="1135.4182"
     inkscape:cy="177.60441"
     inkscape:window-width="1920"
     inkscape:window-height="1017"
     inkscape:window-x="-8"
     inkscape:window-y="-8"
     inkscape:window-maximized="1"
     inkscape:current-layer="g27">
    <inkscape:grid
       id="grid1"
       units="mm"
       originx="0"
       originy="0"
       spacingx="0.99999999"
       spacingy="1"
       empcolor="#0099e5"
       empopacity="0.30196078"
       color="#0099e5"
       opacity="0.14901961"
       empspacing="5"
       dotted="false"
       gridanglex="30"
       gridanglez="30"
       visible="true" />
  </sodipodi:namedview>
  <defs
     id="defs1" />
  <g
     inkscape:groupmode="layer"
     id="g27"
     inkscape:label="Case-FRL"
     style="display:inline">
    <path
       id="rect12-3-9"
       style="display:inline;fill:none;fill-opacity:0.15;stroke:#00ffff;stroke-width:0.0999999;stroke-opacity:1"
       inkscape:label="foot-1"
       d="m 13.050094,29.662789 c -1.384994,0 -2.500106,1.115112 -2.500106,2.500106 v 20.50004 c 0,1.384994 1.115112,2.500106 2.500106,2.500106 H 365.64991 c 1.38499,0 2.50011,-1.115112 2.50011,-2.500106 v -20.50004 c 0,-1.384994 -1.11512,-2.500106 -2.50011,-2.500106 z m 1.650028,2.849955 c 0.994228,6.1e-5 1.800115,0.806178 1.79989,1.800407 -6.1e-5,0.994027 -0.805863,1.799829 -1.79989,1.79989 -0.994027,-6.1e-5 -1.799829,-0.805863 -1.79989,-1.79989 -2.25e-4,-0.994229 0.805662,-1.800346 1.79989,-1.800407 z m 98.799928,0 c 0.99423,6.1e-5 1.80011,0.806178 1.79989,1.800407 -6e-5,0.994027 -0.80586,1.799829 -1.79989,1.79989 -0.99403,-6.1e-5 -1.79983,-0.805863 -1.79989,-1.79989 -2.2e-4,-0.994229 0.80566,-1.800346 1.79989,-1.800407 z m 151.69978,0 c 0.99443,-2.26e-4 1.80063,0.805975 1.80041,1.800407 -6e-5,0.99423 -0.80618,1.800116 -1.80041,1.79989 -0.99403,-6.1e-5 -1.79983,-0.805863 -1.79989,-1.79989 -2.2e-4,-0.994229 0.80566,-1.800346 1.79989,-1.800407 z m 98.80005,0 c 0.99443,-2.26e-4 1.80063,0.805975 1.80041,1.800407 -7e-5,0.99423 -0.80619,1.800116 -1.80041,1.79989 -0.99403,-6.1e-5 -1.79983,-0.805863 -1.79989,-1.79989 -2.3e-4,-0.994229 0.80566,-1.800346 1.79989,-1.800407 z m -182.00014,5.18728 c 0.71811,-9.9e-5 1.30028,0.582069 1.30018,1.300179 -1.9e-4,0.717909 -0.58227,1.299762 -1.30018,1.299663 -0.71771,-1.88e-4 -1.29947,-0.581957 -1.29966,-1.299663 -1e-4,-0.717907 0.58175,-1.299991 1.29966,-1.300179 z m 12.0003,0 c 0.71811,-9.9e-5 1.30028,0.582069 1.30018,1.300179 -1.9e-4,0.717909 -0.58227,1.299762 -1.30018,1.299663 -0.7179,9.4e-5 -1.29998,-0.581758 -1.30017,-1.299663 -1e-4,-0.718106 0.58206,-1.300273 1.30017,-1.300179 z"
       sodipodi:nodetypes="ssssssssscccccccccccccccccccccccccccccc" />
  </g>
</svg>
